X:1
T:Mater, CMD
T:Arthur Depew, 1925
T:Mater, CMD
T:Courtesy of the Cyber Hymnal&amp;#8482;
C:Arthur Depew, 1925
Z:Courtesy of the Cyber Hymnal&#8482;
%%score ( 1 2 ) ( 3 4 )
L:1/8
M:4/4
K:Eb
V:1 treble 
V:2 treble 
V:3 bass 
V:4 bass 
V:1
 [EG]2 | [EG]3 [FA] [GB]2 [EG]2 | E3 [EF] [EG]2 [EA]2 | [EB]2 E2 E2 z A x | [EG]6 [FG]2 | %5
 [EG]2 [Gc]2 [GB]2 [^F=A]2 | G2 z c [DB]2 (_AG) | [DF]2 [FB]2 E2 z B x | D4 z2 B2 x2 | %9
 E2 z G [DG]2 [DF]2 | E2 z G [EG]2 [DF]2 | [EG]2 [EA]2 [EB]2 (dc) | D2- A2 G2 [FB]2 x2 | %13
 [Ee]2 [EB]2 [EA]2 [EG]2 | [_DG]3 [CF] [CF]2 [EA]2 | [DA]2 [DG]2 [DB]3 [B,D] | [B,E]6 |] %17
V:2
 x2 | x8 | E3 x5 | x2 E2 A3 D2 | x8 | x8 | d3 (=A2 x ^C2) | x4 c3 E2 | B6 D4 | B3 E2 x3 | %10
 B3 E2 x3 | x6 E2 | B6 D4 | x8 | x8 | x8 | x6 |] %17
V:3
 [E,B,]2 | D2 z E, [E,B,]2 [_D,B,]2 | C,2 z A, [B,,B,]2 [A,,_C]2 | %3
 [G,,B,]2 [C,G,]2 [F,,C]2 [B,,B,]2 x | [E,B,]6 [D,=B,]2 | [C,C]2 [C,E]2 [D,D]2 [D,C]2 | %6
 [=E,B,]2 [^F,=A,]2 G,2 [E,B,]2 | [F,B,]2 [D,B,]2 [F,B,]2 [F,=A,]2 x | B,2 F,2 [B,,A,]4 x2 | %9
 [B,,G,]2 [B,,B,]2 [B,,A,]2 [B,,A,]2 | [B,,G,]2 [B,,B,]2 [B,,=A,]2 [B,,_A,]2 | %11
 [B,,G,]2 [A,,C]2 [G,,B,]2 [=A,,G,]2 | F,2 C2 B,2 [B,,A,D]2 x2 | [G,_D]2 [G,D]2 [F,D]2 [E,D]2 | %14
 [=E,B,]3 [F,A,] [F,A,]2 [F,,F,C]2 | [B,,C]2 [B,,B,]2 [B,,A,]3 [B,,A,] | [E,G,]6 |] %17
V:4
 x2 | E,3 C2 x3 | G,3 _C,2 x3 | x9 | x8 | x8 | x4 G,2 x2 | x9 | B,,4 x6 | x8 | x8 | x8 | B,,6 x4 | %13
 E,,8 | A,,6 x2 | x8 | x6 |] %17

